X:1
T:Viderunt Omnes
T:Viderunt Omnes
T:Perotin
C:Perotin
%%score [ 1 2 3 4 ]
L:1/8
Q:3/8=116
M:12/8
K:F
V:1 treble-8 transpose=-12 nm="Quadruplum" snm="T."
V:2 treble-8 transpose=-12 nm="Triplum" snm="T."
V:3 treble-8 transpose=-12 nm="Duplum" snm="T."
V:4 treble-8 transpose=-12 nm="Tenor" snm="T."
V:1
 c6- c3 !fermata!z3 |[M:24/8] e2 d e2 f d3 c2 z e2 d e2 f d3 c2 z |[M:24/8] A2 B A2 B | %3
w: VI- *|||
w: |||
 G3 F2 z e3 c3 B3 c2 z |[M:36/8] e2 c c2 B d3 c2 z e2 c c2 B d3 c2 z | e2 f e2 f e3 f2"^1" z | %6
w: |||
w: |||
[M:42/8] f2 g f2 e f3 e3 f3 d3 e3 c2 d e2 d c2 z | f2 e f2 d e3 c2 z | %8
w: ||
w: ||
[M:24/8] F2 G A2 B G2 z F2 E F2 G A2 B G3 F2 z | F2 G A2 B G3 F2 z F3 G2 A B3 c2 z | e2 f e2 f | %11
w: |||
w: |||
 e3 f2 z f2 e d2 c e3 c2"^2" z |[M:27/8] c2 d e2 f d2 e f2 g | e2 d c2 d e3 c3 z3 | %14
w: |||
w: ||* * * * * DE-|
[M:24/8] f3 e3 d3 c2 d f2 f e2 e d3 c2 z |"^3" f3 e3 f3 d3 f3 e2 c d2 e f2 z | %16
w: ||
w: ||
[M:54/8] f3 edc f3 z3 | c3 B3 c3 z3 c3 B3 c3 z3 f3 edc f3 z3 | f3 z3 |[M:18/8] e3 z3 d3 e3 f3 z3 | %20
w: ||||
w: ||||
[M:24/8] f6 | !/!g6 a6- a3"^4" !fermata!z3 |[M:72/8] a3 g3 a3 z3 a3 g3 a3 z3 | %23
w: |||
w: |* RUNT *||
 g6 a3 z3 g6 a3 z3 g6 f3 z3 | e2 c d3 c3"^5" z3 |[M:24/8] c2 B c2 d e2 f e2 z c2 B c2 d e3 c2 z | %26
w: |||
w: |||
 d3 c3 d3 c3 d3 e2 c d2 e f2 z | d3 e3 d3 e3 | d3 e2 c d2 e f2 z | %29
w: |||
w: |||
 f2 g f3 e3 d2 z f2 g f3 e2 d c2 z | f2 g f3 e3 d2 c f2 g f3 e2 d c2"^6" z | d2 e f2 d e2 c d2 c | %32
w: |||
w: |||
 f2 d e2 c d3 c2 z | d2 e f2 d e2 z g3 f3 e3 d3 c2 z | c3 e2 z d3 f2 z egg f!/!ed e3 c2 z | %35
w: |||
w: |||
[M:36/8] d3 c2 d e3 e2 f | g3 d2 e f3 f2 e d3 e3"^7" f3 x3 ||[M:30/8] f3 f2 e d3 d2 e fed c2 d | %38
w: |||
w: ||OM- * * * * * * * * * *|
 e3 e2 d c3 z3 |[M:24/8] c3 c2 d e2 f e2 d d2 !/!c A2 B c3 z3 || %40
w: ||
w: ||
"^8" e3 c2 z d3 c2 z e3 c2 z d3 c2 z | d2 f d2 z c2 e c2 z | d2 f d2 z c2 e c2 z | %43
w: |||
w: |||
 e2 g f3 e3 d2 z e2 g f3 e2 d c2 z | e2 g f3 e3 d2 c e2 g f2 d e3 f2"^9" z | e3 f3 e3 d2 z | %46
w: |||
w: |||
 e2 d f2 d e3 f2 z | e3 f3 e3 d2 z e3 f2 d e3 c2 z | e3 d3 c3 d3 e3 c2 d e2 d c2"^10" z | %49
w: |||
w: |||
[M:120/8] e3 g3 g2 f g3 | e3 g3 f2 g f3 e3 d2 z c3 d3 c2 d c2 d e3 f2 z | %51
w: ||
w: ||
"^11" e3 f3 e2 d e2 f g2 g e2 z g3 f3 e2 d e2 f g2 g e2 z | %52
w: |
w: |
 e2 f d3 c3 d3 e3 f2 d e2 f d3 c3 d3 e3 f2 z |[M:24/8]"^12" c3 d2 e g3 fed c3 cBA B2 c d3 | %54
w: ||
w: ||
[M:12/8] d6 c3 !fermata!z3 ||[K:C][M:19/8]"^13"[Q:1/8=146] cd cA cAc cAAc cA cB c2 A2 | %56
w: ||
w: NES. *|FI- * NES * TER- * * * * RE * * * * * * *|
[M:31/8] A cB cBd dcB cA AG | ABc dc cB def dc cB c2 A2 |[M:20/8] z A cBc ccc AcG GF | FG AcA F2 | %60
w: ||||
w: SA LU- * TA- * * RE- * * * * DE- *|* * * * * I- * * * * NO- * STRI: * * *|JU- BI- * LA- TE- * * DE- * * * *|O * * * * *|
[M:35/8] F Ac dec c2 A_BcB GABAG FGFF Ac c=BG FAG AGG F2 !fermata!z || %61
w: |
w: OM- * * NIS * * * * * * * * * * * TER- * * * RA. * * * * * * * * * * * *|
[M:12/8]"^14"[Q:3/8=116] f6- f3 !fermata!z3 |[M:120/8] f3 edc f3 g3 f3 z3 f3 edc f3 z3 | %63
w: ||
w: NO- *||
 f3 edc c3 d3 c3 z3 c3 d3 c3 z3 c3 z3 c2 d e2 d c3 z3 | %64
w: |
w: |
"^15" f3 g3 f3 z3 f3 g3 f3 z3 f3 z3 f2 e d2 e f3 z3 |[M:24/8] f3 g3 | e2 f g2 f d3 c3 _B3 c2 z | %67
w: |||
w: |||
 e2 f d3 e2 f d3 _B3 c3 d2 e f2 z | e3 f3 e2 d c2 z d3 e2 c d3 c2 z | %69
w: ||
w: ||
 e3 f3 e3 d2 z d2 c e2 d _B3 c2 z |"^16" e3 f3 e3 d2 z e3 f3 e2 d c2 z | %71
w: ||
w: ||
 e3 c3 _B3 d2 z e2 c d2 A B3 c2 z |[M:12/8] f2 e c3 _B3 c2 z | %73
w: ||
w: ||
[M:90/8] f3- f2 !/!g"^17" a3 z3 a2 g f3 e3 z3 e3 z3 e2 d c2 d e3 f3 | %74
w: |
w: * * * TUM * * * * * * * * * * *|
 e2 d c2 d e3 z3 e3 z3 e2 d c2 d e3 z3 e2 d c2 d e3 z3 e2 d c2 d | %75
w: |
w: |
[M:60/8] e3 f3 e2 d c2 d e3 z3 e2 d c2 d e3 z3"^18" g3 z3 f3 e3 d3 c3 | _B6 c3 z3 | %77
w: ||
w: * * * * * * * * * * * * * FE- * * *||
[M:24/8] c3 _B3 c3 z3 c3 B3 c3 z3 |[M:60/8] e3 z3 e2 d c2 d | %79
w: ||
w: ||
 e2 d c3 d3 z3 d2 c _B2 c d2 c B3 c3 z3 c2 z d2 e f2 e d3 c3 z3 | %80
w: |
w: |
[M:24/8] e2 f g3 e3 g3 e2 f g2 f d3 d2 z | e2 f g3 e3 f3 e2 f e2 d c3 c2 z | %82
w: ||
w: ||
"^19" e2 f g3 e3 g3 e2 f g2 f d3 d2 z | e2 f g3 e3 f3 e2 c d2 e f3 z3 | %84
w: ||
w: ||
[M:42/8] f2 f e2 d c2 d f2 z g2 a f2 e d2 _B d2 z e2 f e2 d c3 B3 f3 z3 | %85
w: |
w: |
[M:24/8]"^20" g3 fed c3 d3 e6 c3 x3 |[M:48/8] d3 e3 f3 z3 d3 e3 f2 e d2 c | %87
w: ||
w: * * * * * * CIT- *||
 A3 _B3 c3 z3 A3 B3 c3 z3 |[M:72/8] e2 f g2 f d3 z3 e3 z3 f3 z3 | %89
w: ||
w: ||
 g2 a g2 f d3 z3 c3 d2 e f3 z3 e3 z3 d3 z3 f3 e3 f3 z3 | %90
w: |
w: |
[M:24/8] d6 e2 f g2 z a2 g g2 f"^21" g3 x3 ||[M:48/8] f3 f2 d f2 z e2 d c2 z d2 _B c2 z e3 | %92
w: ||
w: |DO- * * * * * * * * * *|
 c3 d3 e3 f3 e3 d2 e d3 c2 z |[M:24/8] f3 e2 d c3 _B2 z f2 d e2 c c3 B2 z | %94
w: ||
w: ||
 e2 d c2 _B c3 B2 z d3 e2 d c3 B2 z |[M:60/8] c2 z e2 d f2 g a2 g f2 z e2 d f2 g a3 | %96
w: ||
w: ||
 g2 z f3 e2 d f3 g2 z e3 f2 z f2 e d2 c f3 g3 z3 |[M:24/8] f2 d e3 f3 z3 | g3- g2 g a3"^22" z3 || %99
w: |||
w: * * * * * * * * * * * * * MI-|NUS * * *||
[M:12/8] a6- a3 x3 |[M:108/8] a3 g3 a3 z3 a2 g f3 e3 z3 e2 f g2 f | %101
w: ||
w: SA- *||
 e2 f g2 f e3 z3 a3 g3 a3 z3 a2 g f3 e3 z3 e3 z3 e3 z3 | %102
w: |
w: |
 e2 f g2 f e2 f g2 f e2 z d3 g6 a3"^23" z3 ||[M:24/8] a3 a2 !/!f g3 z3 g2 f e2 f | e2 c d2 z | %105
w: |||
w: |* * * LU- TA- * * *||
[M:18/8] g2 f e2 g f3 g3 a3 z3 ||[M:24/8]"^24" a6 g3 z3 g2 f e2 f e2 c d2 z | %107
w: ||
w: ||
[M:18/8] g2 f e2 g f3 g3 a3 z3 |[M:24/8] f6- f3 g3 a6- a3 z3 ||[M:36/8]"^25" a2 g f2 e g3 z3 | %110
w: |||
w: |* * * RE *|SU- * * * *|
 a2 g f2 e f3 z3 f3 g3 a3 z3 || a2 g f2 e g3 g2 z a2 g f2 e f3 f2 z | f2 g a2 g a3 z3 | %113
w: |||
w: |||
[M:24/8] f6- f3 g3 a6- a3 z3 ||[M:114/8]"^26" a3 z3 a3 g3 a3 z3 | %115
w: ||
w: * * * UM: *|AN- * * *|
 a2 g f3 e3 z3 e2 f g2 f e2 d c3 e3 z3 a2 g f2 g e2 f d2 g e2 g f2 g | %116
w: |
w: |
 a3 z3 a2 g f2 g a3 z3 a2 g f2 g e2 f d2 g e2 g f2 g a3 z3 a3 z3 | %117
w: |
w: |
[M:36/8] a3 g3 f3 z3 g6 a3 z3"^27" a2 g a2 f g3 z3 |[M:48/8] g3 f3 g2 a f3 | %119
w: ||
w: * * * * TE CON- * * * *||
 g2 f e2 z d3 c3 d3 c3 f3 z3 e6 f3 z3 |[M:24/8] g3 z3 g3 f3 | g3 f3 g3 z3 | %122
w: |||
w: * * * SPE- * * * * * CTUM|||
[M:30/8] f3 z3 f3 e3 f3 e3 f3 g3 a3 z3 || %123
w: |
w: |
[M:48/8]"^28" f2 f e2 f g3 d2 z f2 f e2 !/!f g2 f e2 !/!d c2 z f2 d e2 c d3 c3 d2 e f3 z3 || %124
w: |
w: GEN- * * * * * * * * * TI- * * * UM * * * * * * * * *|
[M:54/8] f3 e3 f3 d2 z f2 f e2 f g3 d2 z f3 e3 f3 d3 c3 d2 e f3 g3 | a3 z3 | %126
w: ||
w: ||
[M:48/8]"^29" a2 z a2 g f2 g e2 f g2 a f2 e f2 d e3 f3 z3 a2 g f3 | e2 c d2 !/!e f3 z3 | %128
w: ||
w: RE- * * * * * * * * * * * * * * * * *|VE- * * * LA-|
[M:42/8] a2 g f2 e g!/!fe d2 e f3 e2 f g3 z3 | a2 g fed c3 d2 e f3 z3 | %130
w: ||
w: ||
[M:24/8] c3 d2 e f2 e d3 e6 f3 !fermata!z3 ||[M:3/1] z24 |] %132
w: ||
w: * * * * * * VIT. *||
[K:C][M:37/8][Q:1/8=140][Q:1/8=140] z37 |] %133
w: |
w: |
V:2
 f6- f3 !fermata!z3 |[M:24/8] e2 f e2 f e3 f2 z e2 c c2 B d3 c2 z |[M:24/8] e2 f e2 f | %3
w: VI- *|||
w: |||
 e3 f2 z e2 c c2 B d3 c2 z |[M:36/8] e3 f2 d e3 c2 z e2 f e2 f e3 f2 z | c2 d c2 d e3 c2 z | %6
w: |||
w: |||
[M:42/8] d2 e f2 e d2 z e2 d c2 z d2 c B2 z c2 B A2 z c2 d | c!/!AB c2 d e3 f2 z | %8
w: ||
w: ||
[M:24/8] f3 e3 d3 c2 z d3 c3 B3 c2 z | f2 f e2 e d2 d c2 d f2 f e2 e d3 c2 z | A2 B c2 d | %11
w: |||
w: |||
 B3 c2 z c3 d3 e3 f2 z |[M:27/8] f3 z2 f d3 z2 g | e2 z z cd e3 f3 z3 | %14
w: |||
w: ||* * * * DE-|
[M:24/8] d3 c3 B3 c2 z d2 B c2 A B3 c2 z | c3 e3 B3 d3 c2 d e2 d B3 c2 z |[M:54/8] f3 z3 c3 d3 | %17
w: |||
w: |||
 c3 z3 c3 d3 c3 z3 c2 d e2 d c3 z3 f3 edc | f3 z3 |[M:18/8] e3 dcB d2 e d2 B c3 z3 | %20
w: |||
w: |||
[M:24/8] cde f3 | e2 d c3 f6 e3 z3 |[M:72/8] e3 z3 e2 f g2 f e3 z3 e2 d e2 c | %23
w: |||
w: |* * * RUNT *||
 d3 z3 e2 d e2 c d3 z3 e3 z3 d3 z3 c3 z3 | g2 f e!/!de f3 z3 | %25
w: ||
w: ||
[M:24/8] f2 e f2 d e2 z e2 d c2 B c2 d e3 f2 z | d2 f e3 d2 f e3 d2 f e2 c d3 c2 z | %27
w: ||
w: ||
 B3 A3 G2 B A3 | G2 B A2 F G3 F2 z | f2 e f2 d e2 c d2 z f2 e f2 d e2 d c2 z | %30
w: |||
w: |||
 f2 e f2 d e2 c d2 c f2 e f2 d e3 f2 z | g3 f3 e3 d3 | f3 e2 c d2 e f2 z | %33
w: |||
w: |||
 g2 f d2 f e2 z e2 d f!/!ed c2 d e3 f2 z | f3 e2 z g3 f2 z e2 d c2 d e3 f2 z | %35
w: ||
w: ||
[M:36/8] d3 e2 f e3 e2 f | d3 d2 e c3 c2 d d6 c3 z3 ||[M:30/8] fed c3 gfe d2 e f2 f g2 a | %38
w: |||
w: ||OM- * * * * * * * * * * * *|
 a2 !/!g d2 e f3 z3 |[M:24/8] g3 g2 f d2 f e2 a a2 !/!g d2 e f3 z3 || %40
w: ||
w: ||
 e3 f2 z c3 f2 z e3 f2 e c3 f2 z | def g2 z cde f2 z | def g2 z cde f2 z | %43
w: |||
w: |||
 e2 d f2 d e2 c d2 z e2 d f2 d e2 d c2 z | e2 d f2 d e2 c d2 c e2 d f2 d e2 d c2 z | %45
w: ||
w: ||
 e2 c d2 c e2 c d2 z | e2 c d2 c e2 d c2 z | e2 c d2 c e2 c d2 c e2 c d2 c e3 f2 z | %48
w: |||
w: |||
 e3 f3 e3 d2 z e2 d f2 d e3 f2 z |[M:120/8] e3 c3 c2 d c2 d | %50
w: ||
w: ||
 e3 c2 z f2 e f2 d e3 f3 e3 d3 c2 B c2 A B3 c2 e | c2 d f2 d e2 f e2 d c2 d e3 c3 f3 e3 d3 c3 e3 | %52
w: ||
w: ||
 c3 A2 B c2 d B2 c A2 B c2 z c2 z A2 B c2 d B2 c A2 B c2 z |[M:24/8] c3 d2 e c3 g3 fed e3 f2 e d3 | %54
w: ||
w: ||
[M:12/8] e6 f3 z3 ||[K:C][M:19/8] z19 |[M:31/8] z z z3 z z3 z3 z | z z3 z2 z z z z z3 z3 z z | %58
w: ||||
w: ||||
[M:20/8] z3 z3 z z3 z3 | z z z z3 z |[M:35/8] z2 z z z2 z3 z z z2 z z3 z3 z3 z2 z z3 z3 z3 || %61
w: |||
w: |||
[M:12/8] f6- f3 z3 |[M:120/8] f3 z3 f3 z3 f3 g3 f2 z z3 f3 g3 | %63
w: ||
w: NO- *||
 f3 z3 f3 edc f3 z3 f3 edc f3 z3 c3 d3 c3 z3 c3 d3 | %64
w: |
w: |
 c3 z3 c2 _B A2 B c3 z3 c2 B A2 B c2 d c2 z c2 B A2 B c3 z3 |[M:24/8] A2 F G2 F | %66
w: ||
w: ||
 A2 F G2 F G2 _B A3 G3 F2 z | e2 c d2 c e2 c d2 c d2 f e3 d3 c2 z | %68
w: ||
w: ||
 A2 G F3 A2 G F3 G2 _B A3 G3 F2 z | e2 c d2 c e2 c d2 c d2 f e3 d3 c2 z | %70
w: ||
w: ||
 e2 d c2 _B d3 d2 z e2 d c2 B c3 c2 z | e3 f3 e3 d2 z e2 d f2 d e3 f2 z | %72
w: ||
w: ||
[M:12/8] c2 d e2 e d3 c2 z |[M:90/8] f3- f2 !/!g a3 e3 e3 z3 e2 d e2 f e3 z3 e2 d e2 f e3 c3 | %74
w: ||
w: ||
 e2 d e2 f e3 z3 e2 d e2 f e3 z3 e3 z3 e2 d e2 f e3 z3 e2 d e2 f | %75
w: |
w: |
[M:60/8] e3 c3 e2 d e2 f e3 z3 e2 d e2 f e3 z3 d3 z3 f3 z3 f3 d3 | e6 f3 z3 | %77
w: ||
w: ||
[M:24/8] f3 z3 c3 d3 c3 z3 f3 z3 |[M:60/8] e2 f g2 f e2 f g2 f | %79
w: ||
w: ||
 e3 z3 d2 e f2 e d2 e f2 e d3 z3 c2 d e2 d c2 d e2 d c3 z3 f3 z3 | %80
w: |
w: |
[M:24/8] e2 d c3 e2 d c3 e2 d c2 _B d3 d2 z | e3 c3 e3 c3 e2 d c2 A c3 c2 z | %82
w: ||
w: ||
 e2 d c2 e c2 e c3 e2 d c2 _B d3 d2 z | e2 d c2 e c2 e c3 A3 _B3 c3 z3 | %84
w: ||
w: ||
[M:42/8] c2 d e3 z3 c3 d2 e f3 z3 d3 e2 f g2 f e3 d3 c3 z3 |[M:24/8] cde f3 f2 e d3 e6 f3 z3 | %86
w: ||
w: |* * * * * * * CIT- *|
[M:48/8] d3 d3 c3 z3 d3 d3 c3 z3 | e2 c d2 e f3 z3 e2 c d2 e f3 z3 | %88
w: ||
w: ||
[M:72/8] e2 d c2 _B d3 z3 e2 d c2 A c3 z3 | %89
w: |
w: |
 c2 _B c2 B d3 z3 c2 B c2 A c3 z3 e3 dcB d3 z3 c3 B3 c3 z3 | %90
w: |
w: |
[M:24/8] g3 fed c3 d2 z e2 d d2 c d3 z3 ||[M:48/8] f2 d f2 g f!/!ed e2 z f2 e d2 e f!/!ed e2 z | %92
w: ||
w: |DO- * * * * * * * * * * * * * * *|
 f2 e d2 c e!/!d_B c2 z e2 d f2 e d!/!cB c2 z |[M:24/8] f2 d e2 c f2 d f2 z f2 d e2 c f2 d f2 z | %94
w: ||
w: ||
 e2 d f2 f e2 d f2 z g2 f e2 d f2 d f2 z |[M:60/8] g2 f e2 d f2 d e2 z f2 d e2 d f2 d e2 z | %96
w: ||
w: ||
 g2 e f2 d e2 c f2 z g2 f e2 d f!/!ed c2 z d2 c _B2 A G3 z3 |[M:24/8] c2 d _B3 c3 z3 | %98
w: ||
w: |NUS * * *|
 cde f3 e3 z3 ||[M:12/8] e6- e3 z3 |[M:108/8] e2 d c2 _B A3 z3 e3 d3 e3 z3 e2 d c2 B | %101
w: |||
w: |SA- *||
 A3 z3 e3 d3 e3 z3 e2 f e2 d e3 z3 e3 z3 e3 d3 e3 c3 | e3 d3 e3 z3 e2 f e2 d c3 d3 e3 z3 || %103
w: ||
w: ||
[M:24/8] A3 A2 !/!_B c3 z3 c2 d e2 d | e3 d2 z |[M:18/8] c2 d e2 d f3 g3 e3 z3 || %106
w: |||
w: * * * LU- TA- * * *|||
[M:24/8] e2 d c2 _B c3 z3 c2 d e2 d e3 d2 z |[M:18/8] c2 d e2 d f3 g3 e3 z3 | %108
w: ||
w: ||
[M:24/8] c3 d2 e f2 e d3 f6 e3 z3 ||[M:36/8] e2 f e2 d c3 d2 z | %110
w: ||
w: * * * * * * RE *|SU- * * * * *|
 e2 f e2 d c3 z3 f2 e d!/!cd e3 z3 || e2 d f2 e d3 d2 z e2 d f!/!ed c3 c2 z | f2 e f2 d e3 z3 | %113
w: |||
w: |||
[M:24/8] c6- c3 d3 e6- e3 z3 ||[M:114/8] e2 f g2 f e3 z3 e2 f g2 f | %115
w: ||
w: * * * UM: *|AN- * * * * * * * *|
 e2 d c2 z e2 f g2 f e3 z3 e2 d f2 d e3 z3 e2 d f2 d e2 c d2 c e2 d f2 d | %116
w: |
w: |
 e3 z3 e2 d f2 d e3 z3 e2 d f2 d e2 c d2 c e2 d f2 d e3 z3 e3 z3 | %117
w: |
w: |
[M:36/8] e2 f e2 d f3 z3 g6 e3 z3 e6 d3 z3 |[M:48/8] d3 z3 d2 e f2 e | %119
w: ||
w: * * * * * * TE * *||
 d2 e f2 e d3 z3 d2 e f2 e c3 z3 _B6 c3 z3 |[M:24/8] d2 e f2 e d3 z3 | d3 z3 d3 z3 | %122
w: |||
w: * * * * * * * * * * * CTUM|||
[M:30/8] c2 d e2 d c3 z3 c3 z3 c3 d3 e3 z3 || %123
w: |
w: |
[M:48/8] c2 d e2 c d3 d2 z c2 d e2 !/!d d3 e3 g3 f3 e3 d3 c2 _B A2 B c3 z3 || %124
w: |
w: GEN- * * * * * * * * * TI- * UM * * * * * * * *|
[M:54/8] c2 d e2 c d2 d c2 _B c2 d e2 c d3 d2 z c2 d e2 c d2 d c2 B c2 B A2 B c3 d3 | e3 z3 | %126
w: ||
w: ||
[M:48/8] e2 z e2 d f2 d e2 c d2 c f!/!ed c!/!_BA B3 c3 z3 e2 d c2 !/!B | A3 _B3 c3 z3 | %128
w: ||
w: RE- * * * * * * * * * * * * * * * * * * * *|VE- * LA-|
[M:42/8] e2 f e2 d c3 d3 c2 d e2 c d3 z3 | e3 d3 c2 d e2 d c3 z3 |[M:24/8] f2 e d2 c d6 e6 c3 z3 || %131
w: |||
w: ||* * * * * VIT. *|
[M:3/1] z24 |][K:C][M:37/8] z37 |] %133
w: ||
w: ||
V:3
 c6- c3 !fermata!z3 |[M:24/8] B2 c B2 c B3 c2 z e2 f e2 f e3 f2 z |[M:24/8] e2 c c2 B | %3
w: |||
 d3 c2 z e2 f e2 f e3 f2 z |[M:36/8] edc B!/!AG A3 c2 z dcB A!/!GF G3 F2 z | c2 B c2 A c3 c2 z | %6
w: |||
[M:42/8] d3 c3 d2 c B2 z c3 A3 B2 A G2 z A2 G F2 z | c2 d c!/!AB c3 c2 z | %8
w: ||
[M:24/8] c2 d e2 d B3 c2 z d2 c c2 B d3 c2 z | c2 d e2 d B3 c2 z B2 G A2 F G3 F2 z | A2 F F2 E | %11
w: |||
 G3 F2 z c2 B A2 B c3 c2 z |[M:27/8] F2 G A2 F G2 A B2 G | A2 B c2 A B3 c3 z3 | %14
w: ||* * * * * DE-|
[M:24/8] d2 f e2 e d2 d c2 z d2 f e2 c d3 c2 z | c2 c A2 c B2 B G2 A c2 c A2 F G3 F2 z | %16
w: ||
[M:54/8] c3 d3 c3 z3 | c3 d3 c3 z3 c2 d e2 d c3 z3 c2 d e2 d c3 z3 | B3 z3 | %19
w: |||
[M:18/8] A3 z3 G3 z3 F3 z3 |[M:24/8] c2 c d2 c | B2 A G2 F B6 A3 z3 | %22
w: ||* * * * RUNT *|
[M:72/8] A2 B c2 B A3 z3 A2 B c2 B A3 z3 | G2 A c2 G A3 z3 G2 A c2 G A2 z A2 B G2 z G2 A F3 F3 | %24
w: ||
 G3 G3 F3 z3 |[M:24/8] c2 d c2 B A2 G A2 z c2 d c2 B A2 G F2 z | %26
w: ||
 G2 B A3 G2 B A3 G2 B A2 F A3 c2 z | d2 f e3 d2 f e3 | d2 f e2 c d3 c2 z | %29
w: |||
 c3 B3 A3 G2 z c3 B3 A2 G F2 z | c2 c B2 B A2 A G2 A c2 c B2 B A2 G F2 z | G3 F3 A3 G3 | %32
w: |||
 B3 A3 G3 F2 z | G2 G G2 F A2 A A2 G B2 B A2 A G3 F2 z | F2 G A2 z G2 A B2 z A2 B c2 c A3 F2 z | %35
w: |||
[M:36/8] G3 A2 B A3 A2 B | G3 G2 A F3 F2 G G6 F3 z3 ||[M:30/8] F3 G2 A G2 !/!F G2 A F3 z3 | %38
w: ||OM- * * * * * * *|
 A3 F2 G F3 z3 |[M:24/8] cBA G2 F G3 A2 z dcB A2 G F3 z3 || A3 F2 z G3 F2 z A3 F2 z G3 F2 z | %41
w: |||
 G2 B G2 z F2 A F2 z | G2 B G2 z F2 A F2 z | A2 c B3 A2 c G2 z A2 c B3 A2 c F2 z | %44
w: |||
 A2 c B3 A2 c G2 z A2 c B3 A2 c F2 z | A2 c B2 c A2 c G2 z | A2 c B2 c A2 c F2 z | %47
w: |||
 A2 c B2 c A2 c G2 z A2 c B2 c A2 c F2 z | A2 c B2 G A2 F G2 z A2 c B2 G A2 G F2 z | %49
w: ||
[M:120/8] A3 c3 c2 B c2 F | A3 c3 c2 B c2 F A2 c B2 G A2 B G2 z A2 B G2 F G2 A F2 A | %51
w: ||
 c2 c B2 B A2 G A2 B c2 c A2 A c2 c B2 B A2 G A2 B c2 c A2 G | %52
w: |
 A2 B A2 G F2 E F2 G A2 A F2 G A2 B A2 G F2 E F2 G A2 A F2 z | %53
w: |
[M:24/8] F3 G2 A c3 BAG A3 A2 G E2 F G3 |[M:12/8] G6 F3 z3 ||[K:C][M:19/8] z3 z3 z3 z3 z3 z z z z | %56
w: |NES. *||
[M:31/8] z z z3 z z3 z3 z | z z3 z2 z z z z z3 z3 z z |[M:20/8] z3 z3 z z3 z3 | z z z z3 z | %60
w: ||||
[M:35/8] z2 z z z2 z3 z z z2 z z3 z3 z3 z2 z z3 z3 z3 ||[M:12/8] c6- c3 z3 | %62
w: |NO- *|
[M:120/8] c3 d3 c3 z3 c3 z3 c3 d3 c3 z3 | f3 edc f3 z3 f3 edc f3 z3 f3 g3 f3 z3 f3 g3 f3 z3 | %64
w: ||
 c2 d e2 d c3 z3 c2 d e2 d c3 z3 c3 z3 f2 e e2 d c3 z3 |[M:24/8] e2 d c3 | %66
w: ||
 e2 d c3 d2 f e3 d3 c2 z | A2 _B G2 B A2 A G2 z G2 F A2 B G3 F2 z | %68
w: ||
 A2 _B c3 A2 B c3 d2 e c2 d B3 c2 z | A2 _B G2 B A2 A G2 z G2 F A2 B G3 F2 z | %70
w: ||
 A2 _B c2 B G3 G2 z A2 B c2 A F3 F2 z | A2 c _B2 G A2 F G2 z A2 c B!/!AG F3 F2 z | %72
w: ||
[M:12/8] c2 _B A3 B3 c2 z |[M:90/8] cde f3 e3 z3 e2 d e2 f e3 z3 e2 d e2 f e3 c3 e2 d e2 f | %74
w: |* * * * TUM * * * * * * * * * * * * * * *|
 e3 z3 e2 d e2 f e3 c3 A3 z3 A2 G A2 _B A3 z3 A2 G A2 B A3 F3 | %75
w: |
[M:60/8] A2 G A2 _B A3 z3 e2 d e2 f e3 c3 A3 B3 d3- d2 !/!e f2 e d2 c B3 A3 | G3 G3 F3 z3 | %77
w: * * * * * * * * * * * * * * * * FE- * * * * *||
[M:24/8] F3 G3 F3 z3 F3 G3 F3 z3 |[M:60/8] A3 z3 A2 _B c2 B | %79
w: ||
 A2 _B c2 B A3 z3 G2 A B2 A G2 A B2 A G3 z3 F2 G A2 G F2 G A2 G F3 z3 | %80
w: |
[M:24/8] A2 _B c3 A2 B c3 A2 B c2 B G3 G2 z | A2 _B c3 A2 B c3 A2 B c2 A F3 F2 z | %82
w: ||
 A2 _B c2 B c2 A c2 z A2 c B2 A G3 G2 z | A2 _B c2 B c2 A c2 z A2 c B!/!AG F3 F2 z | %84
w: ||
[M:42/8] F2 G A2 G A2 G F2 z G2 A _B2 A B2 A G2 z A2 B c2 B c3 BAG F3 z3 | %85
w: |
[M:24/8] F6 A2 _B G3 A6 F3 z3 |[M:48/8] G3 G3 F3 z3 G3 G3 F3 z3 | A2 F G3 F3 z3 A2 F G3 F3 z3 | %88
w: * * * * CIT- *|||
[M:72/8] A2 _B c2 B G3 !/!A3 A2 B c2 A F3 !/!G3 | %89
w: |
 c2 d c2 _B G3 !/!A3 c2 d c2 A F3 !/!G3 A6 G3 z3 F3 G3 F3 z3 | %90
w: |
[M:24/8] GA_B c3 B2 A G2 z z2 G A2 A G3 z3 ||[M:48/8] _B3 c2 d f3 e2 z f3 g2 d f3 e2 z | %92
w: |DO- * * * * * * * * *|
 f2 z g2 f e2 d c2 z e2 d c2 _B d3 c2 z |[M:24/8] c2 d e2 g f3 d2 z c2 d e2 d c3 _B2 z | %94
w: ||
 A2 G c2 _B G3 F2 z G2 F B2 A c3 F2 z |[M:60/8] G2 A _B2 A F3 A2 z c2 B A2 G B3 A2 z | %96
w: ||
 c2 _B c2 z A2 B c2 B c2 z A2 B G3 F2 z G3 F3 G3 z3 |[M:24/8] F2 G A2 G F3 z3 | F3- F2 G A3 z3 || %99
w: * * * * * * * * * * * * * * MI-|NUS * * * *||
[M:12/8] e6- e3 z3 |[M:108/8] e3 z3 e3 d3 e3 z3 e3 d3 e3 c3 | %101
w: SA- *||
 e3 d3 e3 z3 e2 f e2 d e3 z3 e2 f e2 d c3 _B3 A3 z3 A2 B A2 G | %102
w: |
 A3 z3 A2 _B A2 G A3 G3 A2 B A2 G A3 z3 ||[M:24/8] e2 f e2 !/!d c3 z3 c2 _B A2 G | A3 G2 z | %105
w: |* * * * LU- TA- * * *||
[M:18/8] c2 _B A2 G F3 G3 A3 z3 ||[M:24/8] e2 f e2 d c3 z3 c2 _B A2 G A3 G2 z | %107
w: ||
[M:18/8] c2 _B A2 G F3 G3 A3 z3 |[M:24/8] c_BA G3 F3 z3 G6 A3 z3 ||[M:36/8] A2 G _B2 A G3 G2 z | %110
w: |* * * * * RE *|SU- * * * * *|
 A2 G _B!/!AG F3 z3 c2 B A2 G A3 z3 || A2 G _B2 A G3 G2 z A2 G B!/!AG F3 F2 z | c2 _B A2 G A3 z3 | %113
w: |||
[M:24/8] F3 G2 A _B2 A G3 B6 A3 z3 ||[M:114/8] A3 z3 A2 _B c2 B A3 z3 | %115
w: * * * * * * UM: *|AN- * * * * *|
 A2 _B c2 B A2 G F2 z A2 B c2 B A3 z3 A2 G B2 G A3 z3 A2 G B2 G A2 F G2 F | %116
w: |
 A2 G _B2 G A3 z3 A2 G B2 G A3 z3 A2 G B2 G A2 F G2 F A2 G B2 G A3 z3 | %117
w: |
[M:36/8] A2 _B A2 G F3 z3 G6 A3 z3 A6 G3 z3 |[M:48/8] G2 A _B2 A G2 A B2 A | %119
w: * * * * * * TE CON- *||
 G3 z3 G2 A _B2 A G2 A B2 A F3 z3 G6 F3 z3 |[M:24/8] G3 z3 G2 A _B2 A | G2 A _B2 A G3 z3 | %122
w: * SPE- * * * * * * * * * CTUM|||
[M:30/8] F3 z3 F2 G A2 G F2 G A2 G F3 G3 A3 z3 || %123
w: |
[M:48/8] F2 G A2 _B G3 A2 z F2 G A2 !/!B G3 G2 !/!A c2 c B2 B A2 A G3 F2 G A2 G F3 z3 || %124
w: GEN- * * * * * * * * * TI- * * UM * * * * * * * * * * *|
[M:54/8] F2 G A2 _B G3 G2 !/!A F2 G A2 B G3 G2 !/!A c2 c B2 B A2 A G3 F2 G A2 G F3 G3 | A3 z3 | %126
w: ||
[M:48/8] A2 _B A2 G F2 G A2 B G2 A B!/!AG F2 G A2 G F3 z3 A2 B c2 !/!B | A2 F G3 F3 z3 | %128
w: RE- * * * * * * * * * * * * * * * * * * * * *|VE- * * LA-|
[M:42/8] A2 _B c!/!BA G2 A B!/!AG F2 G A2 F G3 z3 | A3 _B3 c2 A B3 c3 z3 | %130
w: ||
[M:24/8] c2 _B A3 B6 B6 c3 z3 ||[M:3/1] z24 |][K:C][M:37/8] z37 |] %133
w: * * * * VIT. *|||
V:4
 F12- |[M:24/8] F12- F12- |[M:24/8] F6- | F6- F12- |[M:36/8] F12- F12- | F12- | %6
w: VI-||||||
w: ||||||
[M:42/8] F12- F12- F6- | F6- F6- |[M:24/8] F12- F12- | F12- F12- | F6- | F12- F6- |[M:27/8] F12- | %13
w: |||||||
w: |||||||
 F6- F3 F6- |[M:24/8] F12- F12- | F12- F12- |[M:54/8] F12- | F12- F12- F12- | F6- | %19
w: ||||||
w: * * DE-||||||
[M:18/8] F12- F6- |[M:24/8] F6- | F6 A12- |[M:72/8] A12- A12- | A12- A12- A12- | A6 c6- | %25
w: ||||||
w: ||* RUNT||||
[M:24/8] c12- c12- | c12- c12- | c12- | c12- | c12- c12- | c12- c12- | c12- | c12- | c12- c12- | %34
w: |||||||||
w: |||||||||
 c12- c12- |[M:36/8] c12- | c12- c12- ||[M:30/8] c6 d6 c3 z3 | A6 c3 z3 | %39
w: |||||
w: |||OM- * *||
[M:24/8] c6 e3 z3 d6 c6- || c12- c12- | c12- | c12- | c12- c12- | c12- c12- | c12- | c12- | %47
w: ||||||||
w: ||||||||
 c12- c12- | c12- c12- |[M:120/8] c12- | c12- c12- c12- | c12- c12- c12- | c12- c12- c12- | %53
w: ||||||
w: ||||||
[M:24/8] c12- c12 |[M:12/8] c6- c3 z3 ||[K:C][M:19/8] z19 |[M:31/8] z13 | z18 |[M:20/8] z13 | z7 | %60
w: |||||||
w: |NES. *||||||
[M:35/8] z35 ||[M:12/8] F12- |[M:120/8] F12- F12- F6- | F12- F12- F12- F12- | F12- F12- F12- F6- | %65
w: |||||
w: |NO-||||
[M:24/8] F6- | F12- F6- | F12- F12- | F12- F12- | F12- F12- | F12- F12- | F12- F12- | %72
w: |||||||
w: |||||||
[M:12/8] F12- |[M:90/8] F6 A12- A12- A12- | A12- A12- A12- A12- |[M:60/8] A12- A12- A6 G6 c12- | %76
w: ||||
w: |* TUM * *|||
 c12- |[M:24/8] c12- c12- |[M:60/8] c12- | c12- c12- c12- c12- |[M:24/8] c12- c12- | c12- c12- | %82
w: ||||||
w: ||||||
 c12- c12- | c12- c12- |[M:42/8] c12- c12- c12- c6- |[M:24/8] c12 c12- |[M:48/8] c12- c12- | %87
w: |||||
w: |||||
 c12- c12- |[M:72/8] c12- c12- | c12- c12- c12- c12- |[M:24/8] c12- c12 || %91
w: ||||
w: ||||
[M:48/8] d3 c3 c3 A2 z c3 d3 c3 =B2 z | c3 d3 A3 F2 z A3 c3 d3 c2 z | %93
w: ||
w: DO- * * * * * * *||
[M:24/8] c3 A3 c3 d2 z c3 =B3 c3 d2 z | A3 F3 _B3 B2 z G3 _B3 c3 _B2 z | %95
w: ||
w: ||
[M:60/8] c3 _B3 c3 A2 z F3 A3 F3 A2 z | G3 F3 A3 F3 G3 A3 c3 c3 d3 f3 d3 z3 |[M:24/8] c3 d3 c3 z3 | %98
w: |||
w: |* * * * * * * * * * MI-|NUS * *|
 c6 A3 z3 ||[M:12/8] A12- |[M:108/8] A12- A12- A6- | A12- A12- A12- A12- | A12- A12- A6- || %103
w: |||||
w: |SA-||||
[M:24/8] A6 c3 z3 c6 | A3 z3 |[M:18/8] c6- c6 A6- ||[M:24/8] A12- A12- |[M:18/8] A12- A6- | %108
w: |||||
w: * LU- TA-|||||
[M:24/8] A12 A6- A3 z3 ||[M:36/8] A6 c3 z3 | A6 c3 z3 c6 A6- || A12- A12- | A12- | %113
w: |||||
w: * RE *|SU- *||||
[M:24/8] A12 A6- A3 z3 ||[M:114/8] A12 A6- | A12- A12- A12- A12- | A12- A12- A12- A12- | %117
w: ||||
w: * UM: *|AN- *|||
[M:36/8] A12- A6 A3 z3 A6 d6 |[M:48/8] d12- | d6 d12- d12 c3 z3 |[M:24/8] d12- | d12 | %122
w: |||||
w: * * TE CON- *||* SPE- * CTUM|||
[M:30/8] c12- c12 A3 z3 ||[M:48/8] c6 d3 z3 f6 d3 z3 c6 d6 c6 c6- ||[M:54/8] c12- c12- c12- c12 | %125
w: |||
w: |GEN- * * TI- UM * * *||
 A3 z3 |[M:48/8] A6 c6 d6 c6 c3 z3 A6 | A6 c3 z3 |[M:42/8] A6 c6 c6 G3 z3 | A6 A6 F6- | %130
w: |||||
w: |RE- * * * * *|VE- LA-|||
[M:24/8] F12 F6- F3 z3 || %131
w: |
w: * VIT. *|
[M:3/1] A (3Ac[Ac] z cF (3AcA cG- (6:4:6.GFEFG[GA] (6:4:6FG[Ac]=BG[A_B] z F-F z3 |] %132
w: |
w: |
[K:C][M:37/8]"^Oh all right, that little jiggie-sounding thing was a MIDI goofup of the final chorus... but it sounded socute I left it there. Here is the ending of Viderunt as it should be:" AAc cA=B GA cA _BGF EF GA G2 FGAcA G2 FGAc cG BA F2 z |] %133
w: JU- STI- * * * * TI- * AM * * * SU- * * * * * * * * * * * * * * * * * * * AM|
w: |

